X:1
T:Title
%%score { ( 1 3 5 ) | ( 2 4 ) }
L:1/8
M:9/8
K:C
V:1 treble nm="Grand Piano"
V:3 treble 
V:5 treble 
V:2 bass 
V:4 bass 
V:1
 z3 z2[Q:1/4=100] C E2 [EG] | [Ec]3- [Ec]2 [CGB] [CFA]2 [CFc] | [EG]3- [EG]2 [CEG] [CEG]2 [EGc] | %3
 z3 z3 .[DF]3 | [CEG]3- [CEG]2[K:bass] [E,C] [G,CE]2[K:treble] [CEG] | %5
 [Ec]3- [Ec]2 [DB] [Fd]2 [Ec] | A3- A2 c dcA | G3- G2 c e2 d |[M:5/8] [Ec]-[Ec]- [Ec]3 | %9
[M:2/4] cc B[Ec] |[M:9/8] [Fd]6 z3 | [Ge]6 z3 | eee [Ge][Fd][Ec] [Gc]de | d3- d2 G EG[EGc] | %14
 [Ge]3- [Ge]2 [DGd] [EGc]2 [DGB] | [CFA]3- [CFA]2 c dcA | G3- G2 c e2 d | %17
[M:5/8] [Ec]-[Ec]- [Ec]3 |] %18
V:2
 z3 z2 [C,E,] [C,G,C]2 [C,C] | [C,G,]3- [C,G,]2 E, F,2 A, | C3- C2 C, C,2 C, | %3
 G,3- G,2 G,, z EG,, | C,3- C,2 C, C,2 C, | [C,G,]3- [C,G,]2 [C,G,] [C,G,]2 [C,C] | %6
 [F,CF]3- [F,CF]2 [F,A,F] [F,A,F]2 [F,CF] | [G,CE]3- [G,CE]2 [G,E] [G,CG]2 [G,B,F] | %8
[M:5/8][K:bass] [C,G,]-[C,G,]- [C,G,]3 |[M:2/4] EE D[C,G,] | %10
[M:9/8] [G,B,]G,G, z2[K:treble] F FE[G,B,F] | [C,C]C,C, C,3 [CE]2[K:treble] [CF] | %12
 [CG][CG][CG][K:bass] [C,C][D,B,][E,C] [E,C][K:treble][G,B,G][CG] | %13
 [G,B,G]3- [G,B,G]2 [G,B,D][K:bass] CEC, | C2- [C,C-] [C,C]2 C, C,2 E, | %15
 F,2 F, F,2[K:treble] [F,A,F] [F,A,F]2 [F,CF] | [G,CE]3- [G,CE]2 [G,CE] [G,CG]2 [G,B,F] | %17
[M:5/8][K:bass] [C,C]-[C,C]- [C,C]3 |] %18
V:3
 x9 | x9 | x9 | [DFB]3- [DFB]2 [G,B,D] B,-[B,G][B,FA] | x5[K:bass] x3[K:treble] x | x9 | x9 | x9 | %8
[M:5/8] x5 |[M:2/4] x4 |[M:9/8] z B,B, z2 d dcd | z CC G,3 c2 d | x9 | x9 | x9 | x9 | x9 | %17
[M:5/8] x5 |] %18
V:4
 x9 | x9 | x9 | z3 z3 .G,,3 | x9 | x9 | x9 | x9 |[M:5/8][K:bass] x5 |[M:2/4] x4 | %10
[M:9/8] z3 G,6[K:treble] | x8[K:treble] x | x3[K:bass] x4[K:treble] x2 | z3 z3[K:bass] .C,3 | %14
 .C,3 z3 z3 | x5[K:treble] x4 | x9 |[M:5/8][K:bass] x5 |] %18
V:5
 x9 | x9 | x9 | x9 | x5[K:bass] x3[K:treble] x | x9 | x9 | x9 |[M:5/8] x5 |[M:2/4] x4 | %10
[M:9/8] z3 B,6 | x9 | x9 | x9 | x9 | x9 | x9 |[M:5/8] x5 |] %18

